devices/scalable-light/network-bluetooth.svg

<svg viewBox="0 0 16 16" xmlns="http://www.w3.org/2000/svg"><path d="m7.800118 0v6.064062l-3.6719653-3.664062-1.1281527 1.128125 4.4719851 4.471875-4.4719851 4.464062 1.1281527 1.135938 3.6719653-3.671875v6.071875h.8000197l4.5688623-4.56875-3.4407096-3.43125 3.4407096-3.43125-4.5688623-4.56875zm1.6000393 3.0640625 1.5047237 1.5046875-1.5047237 1.495312zm0 6.8640625 1.5047237 1.503125-1.5047237 1.504688z" fill="#4d4d4d"/></svg>

<svg xmlns="http://www.w3.org/2000/svg" viewBox="0 0 16 16">
  <defs id="defs3051">
    <style type="text/css" id="current-color-scheme">
      .ColorScheme-Text {
        color:#4d4d4d;
      }
      </style>
  </defs>
 <path 
     style="fill:currentColor;fill-opacity:1;stroke:none" 
     class="ColorScheme-Text"
     d="m 7.800118,0 0,6.064062 L 4.1281527,2.4 3,3.528125 7.4719851,8 3,12.464062 4.1281527,13.6 7.800118,9.928125 7.800118,16 8.6001377,16 13.169,11.43125 9.7282904,8 13.169,4.56875 8.6001377,0 7.800118,0 Z M 9.4001573,3.0640625 10.904881,4.56875 9.4001573,6.064062 l 0,-2.9999995 z m 0,6.8640625 1.5047237,1.503125 -1.5047237,1.504688 0,-3.007813 z"
     />
</svg>
